flags/fr-cp.svg

<svg xmlns="http://www.w3.org/2000/svg" width="512" height="512" fill="none"><g clip-path="url(#a)"><path fill="var(--flag-palette-blue, #0052b4)" d="M0 0h512v512H0z"/><path fill="var(--flag-palette-bright-white, #fcfcfc)" d="m256 52 204 204-204 204L52 256z"/><path fill="var(--flag-palette-brown, #85693d)" d="m232 463 12-299h24l12 299z"/><path fill="var(--flag-palette-green, #6da544)" d="M293 172c31-14 42-23 90-22-40-18-77-23-108 0 9-23 27-54 59-77-55 9-82 36-86 68-14-32-55-45-100-45 50 27 36 27 73 63-32-5-68 9-104 50 49-27 72-18 104-14a90 90 0 0 0-41 86c36-45 31-32 77-72 18 40 40 49 49 86 9-37 0-77-18-91 36 14 68 23 86 50-9-63-50-72-81-82"/></g><defs><clipPath id="a"><path fill="#fff" d="M0 0h512v512H0z"/></clipPath></defs></svg>

<svg width="512" height="512" viewBox="0 0 512 512" fill="none" xmlns="http://www.w3.org/2000/svg">
<rect width="512" height="512" fill="var(--flag-palette-blue, #0052b4)"/>
<path d="M256 52L460 256L256 460L52 256L256 52Z" fill="var(--flag-palette-bright-white, #fcfcfc)"/>
<path d="M232 463L244 164H268L280 463H232Z" fill="var(--flag-palette-brown, #85693d)"/>
<path d="M293 172C324 158 335 149 383 150C343 132 306 127 275 150C284 127 302 96 334 73C279 82 252 109 248 141C234 109 193 96 148 96C198 123 184 123 221 159C189 154 153 168 117 209C166 182 189 191 221 195C206.804 204.063 195.435 216.927 188.187 232.13C180.939 247.333 178.103 264.265 180 281C216 236 211 249 257 209C275 249 297 258 306 295C315 258 306 218 288 204C324 218 356 227 374 254C365 191 324 182 293 172Z" fill="var(--flag-palette-green, #6da544)"/>
</svg>
